X:1
T:Title
L:1/8
M:4/4
K:D
V:1 treble nm="Midi_1"
V:1
 D2 F2 A2"^Descant to Salzburg AMNS 81" B2 | A3 B (c2 d2) | e2 f2 e2 d2 | d2 c2 d4 | c2 de f2 gf | %5
w: Ea \-ster tri- umph,|Ea- ster joy, *|sin a- lone can|this des- troy;|from sin's * power do *|
 e2 c2 d4 | e2 ^d2 e2 f2 | e2 c2 d4 | ^G2 A2 B2 c2 | d2 ed c4 | B3 c d2 d2 | c2 fe d4 | %12
w: thou set free|souls new- born, O|Lord, in thee.|Hymns of glo- ry|and of * praise,|ri- sen Lord, to|thee we * raise;|
 AB c2 ^d2 d2 | e2 e2 e2 (f2 | %14
w: ho * ly Fa- ther,|praise to thee, with|
 g2) a2"^Andrew Sims, Easter 2015\nto harmony by Noel Rawsthorne" fe d2 | e2 e2 f4 |] %16
w: * the Spi * rit,|ev- er be.|

